X: 3
T: Jefferson and Liberty  v.1
P: piffero primo a0055
O: safd 025
F: http://ancients.sudburymuster.org/mus/med/pdf/jeffblackwC1.pdf
Z: 2019 John Chambers <jc:trillian.mit.edu>
M: 6/8
L: 1/8
K: Bm
(B/c/ |"^>"\
d2)B B^AB | F2B Bcd | c2A ABc | ecA ABc |\
d2B  B^AB | F2B B2f | fed cdc | F2B B2 :|
|: d |\
B2c d2e | f2g a3 | f2g a2f | ecA A2F |\
B2c d2e | fga b3 | fed cdc | F2B B2 :|


